/* XPM */
static char * exit_idle_0_xpm[] = {
"64 64 6 1",
" 	c #63CE08",
".	c #B5FF52",
"+	c #000001",
"@	c #F83808",
"#	c #F89850",
"$	c #297300",
"    ....    ....    ............    ....    ....    ............",
"    ....    ....    ............    ....    ....    ............",
"    ....    ....    ............    ....    ....    ............",
"    ....    ....    ............    ....    ....    ............",
"....    ++++++++....++++++++    ....++++++++    ++++++++....    ",
"....    ++++++++....++++++++    ....++++++++    ++++++++....    ",
"....    ++++++++....++++++++    ....++++++++    ++++++++....    ",
"....    ++++++++....++++++++    ....++++++++    ++++++++....    ",
"    ++++@@@@@@@@++++########++++++++########++++@@@@@@@@++++....",
"    ++++@@@@@@@@++++########++++++++########++++@@@@@@@@++++....",
"    ++++@@@@@@@@++++########++++++++########++++@@@@@@@@++++....",
"    ++++@@@@@@@@++++########++++++++########++++@@@@@@@@++++....",
"++++####@@@@@@@@++++####++++@@@@@@@@++++####++++@@@@@@@@####++++",
"++++####@@@@@@@@++++####++++@@@@@@@@++++####++++@@@@@@@@####++++",
"++++####@@@@@@@@++++####++++@@@@@@@@++++####++++@@@@@@@@####++++",
"++++####@@@@@@@@++++####++++@@@@@@@@++++####++++@@@@@@@@####++++",
"    ++++++++@@@@@@@@++++####++++@@@@@@@@++++@@@@@@@@++++++++....",
"    ++++++++@@@@@@@@++++####++++@@@@@@@@++++@@@@@@@@++++++++....",
"    ++++++++@@@@@@@@++++####++++@@@@@@@@++++@@@@@@@@++++++++....",
"    ++++++++@@@@@@@@++++####++++@@@@@@@@++++@@@@@@@@++++++++....",
"++++####@@@@@@@@++++########++++++++++++@@@@@@@@@@@@########++++",
"++++####@@@@@@@@++++########++++++++++++@@@@@@@@@@@@########++++",
"++++####@@@@@@@@++++########++++++++++++@@@@@@@@@@@@########++++",
"++++####@@@@@@@@++++########++++++++++++@@@@@@@@@@@@########++++",
"....++++++++@@@@++++############++++@@@@@@@@@@@@++++++++++++....",
"....++++++++@@@@++++############++++@@@@@@@@@@@@++++++++++++....",
"....++++++++@@@@++++############++++@@@@@@@@@@@@++++++++++++....",
"....++++++++@@@@++++############++++@@@@@@@@@@@@++++++++++++....",
"++++####@@@@@@@@@@@@++++########++++@@@@@@@@@@@@@@@@####++++....",
"++++####@@@@@@@@@@@@++++########++++@@@@@@@@@@@@@@@@####++++....",
"++++####@@@@@@@@@@@@++++########++++@@@@@@@@@@@@@@@@####++++....",
"++++####@@@@@@@@@@@@++++########++++@@@@@@@@@@@@@@@@####++++....",
"    ++++####@@@@++++@@@@####@@@@++++++++@@@@####++++++++........",
"    ++++####@@@@++++@@@@####@@@@++++++++@@@@####++++++++........",
"    ++++####@@@@++++@@@@####@@@@++++++++@@@@####++++++++........",
"    ++++####@@@@++++@@@@####@@@@++++++++@@@@####++++++++........",
"....    ++++####++++@@@@@@@@++++####++++############++++....    ",
"....    ++++####++++@@@@@@@@++++####++++############++++....    ",
"....    ++++####++++@@@@@@@@++++####++++############++++....    ",
"....    ++++####++++@@@@@@@@++++####++++############++++....    ",
"    ....    ++++++++@@@@@@@@++++++++++++++++++++++++....    ....",
"    ....    ++++++++@@@@@@@@++++++++++++++++++++++++....    ....",
"    ....    ++++++++@@@@@@@@++++++++++++++++++++++++....    ....",
"    ....    ++++++++@@@@@@@@++++++++++++++++++++++++....    ....",
"............    ....++++@@@@@@@@++++........    ....    ........",
"............    ....++++@@@@@@@@++++........    ....    ........",
"............    ....++++@@@@@@@@++++........    ....    ........",
"............    ....++++@@@@@@@@++++........    ....    ........",
"    ....    ....    ++++####++++    ....    ....    ....    ....",
"    ....    ....    ++++####++++    ....    ....    ....    ....",
"    ....    ....    ++++####++++    ....    ....    ....    ....",
"    ....    ....    ++++####++++    ....    ....    ....    ....",
"....    ....    ....++++####++++....    ....    ....    $$$$    ",
"....    ....    ....++++####++++....    ....    ....    $$$$    ",
"....    ....    ....++++####++++....    ....    ....    $$$$    ",
"....    ....    ....++++####++++....    ....    ....    $$$$    ",
"................    ++++####++++................    ....    ....",
"................    ++++####++++................    ....    ....",
"................    ++++####++++................    ....    ....",
"................    ++++####++++................    ....    ....",
"............    ....    ++++................    ....    ........",
"............    ....    ++++................    ....    ........",
"............    ....    ++++................    ....    ........",
"............    ....    ++++................    ....    ........"};
